X:1
T:Title
%%score { ( 1 3 ) | 2 }
L:1/8
Q:1/4=100
M:4/4
K:C
V:1 treble nm="Grand Piano"
V:3 treble 
V:2 bass 
V:1
 [Ec]2 [GB]>[FA] [EG]2 [CE]2 | [FA]2 [EG]>[DF] E2 C2 | [B,D]2 [CE]2 [DF]>[EG] [FA]>[EG] | %3
w: Elisha~A.~Hoffman * * * *|||
 [EG]2 [DF]2 [CE]4 | [Ec]2 [GB]>[FA] [EG]2 [CE]2 | [FA]2 [EG]>[DF] E2 C2 | %6
w: |||
 [B,D]2 [Dd]2 [Ed]>[Ec] [B,EB]>[CEA] | [C^FA]4 [B,G]4 | [Ge]2 [Ge]2 [Fd]>[Ac] [GB]>[FA] | %9
w: |||
 z4 [Ec]4[K:bass] | [DB]>[DB] [DB]>[Ec] [Fd]>[Ec] [DB]2 | [Ec]>[Ec] [Ec]>[Fd] [Ge]>[Fd] [Ec]2 | %12
w: |||
 [Ge]2 [Ge]2 [Fd]>[Ac] [GB]>[FA] | z4 [Ec]4[K:bass] | [Fd]>[Fd] [Fd]>[Ec] [Ge]2 [Fd]2 | [Ec]6 z2 |] %16
w: ||||
V:2
 [C,C]2 [C,C]>[C,C] [C,C]2 [C,G,]2 | [C,C]2 [C,C]>[C,G,] [C,G,C]2 [C,E,]2 | %2
 [G,,G,]2 [G,,G,]2 [G,,G,]>[G,,G,] [G,,G,]>[G,,G,] | [C,G,]4 [C,G,]4 | %4
 [C,C]2 [C,C]>[C,C] [C,C]2 [C,G,]2 | [C,C]2 [C,C]>[C,G,] [C,G,C]2 [C,E,]2 | %6
 [G,,G,]2 [B,,G,]2 [C,G,]>[C,A,] C,>C, | D,4 G,,4 | [C,C]2 [C,C]2 [F,A,]>[F,C] [F,C]>[F,C] | %9
 [C,C]2 [C,C]2 [C,G,]2 z2 | [G,,G,]>[G,,G,] [G,,G,]>[G,,G,] [G,,G,]>[G,,G,] [G,,G,]2 | %11
 [C,G,]>[C,G,] [C,G,]>[C,G,] [C,C]>[C,G,] [C,G,]2 | [C,C]2 [C,C]2 [F,A,]>[F,C] [F,C]>[F,C] | %13
 [C,C]2 [C,C]2 [C,G,]2 z2 | [G,,G,]>[G,,G,] [G,,G,]>[G,,G,] [G,,G,]2 [G,,G,]2 | [C,G,]6 z2 |] %16
V:3
 x8 | x8 | x8 | x8 | x8 | x8 | x8 | x8 | x8 | [EG]4 z2[K:bass] [C,G,]2 | x8 | x8 | x8 | %13
 [EG]4 z2[K:bass] [C,G,]2 | x8 | x8 |] %16

